X: 1
T: the Hiking Song
T: the Marching Song
C: A.MacKenzie
R: air, slow march
Z: 1997 by John Chambers <jc:trillian.mit.edu>
M: C
L: 1/8
K: A
"E7"ed \
| "A"c2A2 E2c2 | B2A4 C>D | E2c2 "E7"E2B2 | "A"A6 B>c \
| "Bm"d2e2 "E7"c2B2 | "F#m"A2A4 A>B | "B7"c2A2 A2c2 | "E7"e6 ||
   ed \
| "A"c2A2 E2c2 | B2A4 F>G | "D"A2A2 "(Bm)"BAGF | "E7"E6 FG \
| "D"A2G2 F2E2 | "A"C>D E4 FG | A2e2 "E7"cAB2 | "A"A6 |]
|: E2 \
| "A"A3c e2E2 | "F#m"A3c "(C#m)"e2EE | "D"F2A2 "(Bm)"d2c2 | "E7"B6 cd \
| "A"e3c A3G | "D"F2A2 "(Bm)"BAGF | "E7"E2e2 cAB2 | "A"A6 :|
